img/logo-github-10.svg

<svg fill="none" height="25" viewBox="0 0 24 25" width="24" xmlns="http://www.w3.org/2000/svg" xmlns:xlink="http://www.w3.org/1999/xlink"><clipPath id="a"><path d="m0 .501953h24v24h-24z"/></clipPath><g clip-path="url(#a)"><path clip-rule="evenodd" d="m11.9633.500977c-6.6055 0-11.9633 5.357793-11.9633 11.963323 0 5.2844 3.44954 9.7614 8.14679 11.3761.58715.0734.80734-.2936.80734-.5871 0-.2936 0-1.0276 0-2.0551-3.30275.734-4.0367-1.6147-4.0367-1.6147-.51376-1.3944-1.3211-1.7614-1.3211-1.7614-1.10092-.734.07339-.734.07339-.734 1.17432.0734 1.83487 1.2477 1.83487 1.2477 1.10091 1.8349 2.78899 1.3211 3.44954 1.0276.07339-.8074.44037-1.3211.73394-1.6147-2.6422-.2936-5.43119-1.3211-5.43119-5.945 0-1.3211.44037-2.3486 1.24771-3.22933-.0734-.22018-.51376-1.46789.14679-3.08257 0 0 1.02752-.29358 3.30275 1.24771.95413-.29358 1.98167-.36697 3.00917-.36697s2.055.14679 3.0092.36697c2.2752-1.54129 3.3027-1.24771 3.3027-1.24771.6606 1.61468.2202 2.86239.1468 3.15597.734.80733 1.2477 1.90823 1.2477 3.22933 0 4.6239-2.789 5.578-5.4312 5.8716.4404.367.8074 1.1009.8074 2.2018v3.3028c0 .2935.2202.6605.8073.5871 4.7707-1.6147 8.1468-6.0917 8.1468-11.3761-.0734-6.60553-5.4312-11.963323-12.0367-11.963323z" fill="#000" fill-rule="evenodd"/></g></svg>

<svg width="24" height="25" viewBox="0 0 24 25" fill="none" xmlns="http://www.w3.org/2000/svg">
<g clip-path="url(#clip0_3422_3495)">
<path fill-rule="evenodd" clip-rule="evenodd" d="M11.9633 0.500977C5.3578 0.500977 0 5.85877 0 12.4643C0 17.7487 3.44954 22.2257 8.14679 23.8404C8.73394 23.9138 8.95413 23.5468 8.95413 23.2533C8.95413 22.9597 8.95413 22.2257 8.95413 21.1982C5.65138 21.9322 4.91743 19.5835 4.91743 19.5835C4.40367 18.1891 3.59633 17.8221 3.59633 17.8221C2.49541 17.0881 3.66972 17.0881 3.66972 17.0881C4.84404 17.1615 5.50459 18.3358 5.50459 18.3358C6.6055 20.1707 8.29358 19.6569 8.95413 19.3634C9.02752 18.556 9.3945 18.0423 9.68807 17.7487C7.04587 17.4551 4.25688 16.4276 4.25688 11.8037C4.25688 10.4826 4.69725 9.4551 5.50459 8.57437C5.43119 8.35419 4.99083 7.10648 5.65138 5.4918C5.65138 5.4918 6.6789 5.19822 8.95413 6.73951C9.90826 6.44593 10.9358 6.37254 11.9633 6.37254C12.9908 6.37254 14.0183 6.51933 14.9725 6.73951C17.2477 5.19822 18.2752 5.4918 18.2752 5.4918C18.9358 7.10648 18.4954 8.35419 18.422 8.64777C19.156 9.4551 19.6697 10.556 19.6697 11.8771C19.6697 16.501 16.8807 17.4551 14.2385 17.7487C14.6789 18.1157 15.0459 18.8496 15.0459 19.9505C15.0459 21.5652 15.0459 22.8129 15.0459 23.2533C15.0459 23.5468 15.2661 23.9138 15.8532 23.8404C20.6239 22.2257 24 17.7487 24 12.4643C23.9266 5.85877 18.5688 0.500977 11.9633 0.500977Z" fill="black"/>
</g>
<defs>
<clipPath id="clip0_3422_3495">
<rect width="24" height="24" fill="white" transform="translate(0 0.501953)"/>
</clipPath>
</defs>
</svg>
